!! 00047] TT[KA
!! NN
!!!OTL: Mengjiangnu ku changcheng
!!!ARE: Asia, China,ˇbei Hebei, Jinxian
!! Ethnic Group: Han
!! IV, 77
!!!SCT: C0384
!!!YEM: Copyright 1995, estate of Helmut Schaffrath.
**kern
*ICvox
*Ivox
*M2/4
*k[b-]
*F:
{16f
16d
4f
16f
16g
=1
16a
16cc
16a
16g
16a
16g
8a
=2
8cc
16dd
16ff
16dd
16cc
16a
16g
=3
16a
16cc
4.g}
=4
{8cc
16dd
16ff
16dd
16cc
16a
16g
=5
16f
16d
16f
16g
8a
16cc
16dd
=6
16.cc
32a
16g
16f
16g
16c
16d
16f
=7
16d
16f
4.c}
=8
{16d
16f
16c
16d
8.f
16g
=9
16a
16cc
16a
16g
8a
16cc
16dd
=10
16cc
16a
16g
16a
16e
16d
16c
16c
=11
16d
16e
16d
16c
4d}
=12
{8e
16a
16cc
16a
16g
16e
16d
=13
16c
16A
16c
16d
8.f
16g
=14
16cc
16a
16g
16f
16g
16c
16d
16f
=15
16d
16f
4.c}
==
!!!AGN: Xiaodiao, Shi diao, MengjiangnÅ diao. MengjiangnÅ de chuanshuo
!! Hier wird 13 Monate erzaehlt, weil die Geschichte fuer 12 zu
!!    lang ist. Variante ?
!!    Vereinzelt Verzierungen.
!!!ONB: ESAC (Essen Associative Code) Database: CHINA
!!!AMT: simple duple
!!!AIN: vox
!!!EED: Helmut Schaffrath
!!!EEV: 1.0
*-
